ui_kit/lib/assets/icons/cam_state_off.svg

<svg width="24" height="24" viewBox="0 0 24 24" fill="none" xmlns="http://www.w3.org/2000/svg">
<path fill-rule="evenodd" clip-rule="evenodd" d="M4.35146 3.23187C4.04229 2.92271 3.54104 2.92271 3.23187 3.23187C2.92271 3.54104 2.92271 4.04229 3.23187 4.35146L5.06704 6.18663C4.55079 6.25413 4.0678 6.49003 3.69562 6.86221C3.25022 7.30761 3 7.9117 3 8.54159V16.4583C3 17.0881 3.25022 17.6922 3.69562 18.1376C4.14102 18.583 4.74511 18.8333 5.375 18.8333H14.0833C14.7132 18.8333 15.3173 18.583 15.7627 18.1376C15.9799 17.9204 16.1507 17.6655 16.2687 17.3883L20.6485 21.7681C20.9577 22.0773 21.459 22.0773 21.7681 21.7681C22.0773 21.459 22.0773 20.9577 21.7681 20.6485L16.233 15.1134C16.2308 15.1112 16.2287 15.109 16.2265 15.1068L7.51813 6.39846C7.51593 6.39627 7.51373 6.39409 7.51152 6.39193L4.35146 3.23187ZM6.63034 7.74992L14.875 15.9946V16.4583C14.875 16.6682 14.7916 16.8696 14.6431 17.018C14.4947 17.1665 14.2933 17.2499 14.0833 17.2499H5.375C5.16504 17.2499 4.96367 17.1665 4.81521 17.018C4.66674 16.8696 4.58333 16.6682 4.58333 16.4583V8.54159C4.58333 8.33163 4.66674 8.13026 4.81521 7.9818C4.96367 7.83333 5.16504 7.74992 5.375 7.74992H6.63034ZM11.4392 7.74992H14.0833C14.2933 7.74992 14.4947 7.83333 14.6431 7.9818C14.7916 8.13026 14.875 8.33163 14.875 8.54159V11.1858C14.875 11.3957 14.9584 11.5971 15.1069 11.7455L15.8985 12.5372C16.1735 12.8121 16.6073 12.8467 16.9223 12.6189L20.4167 10.0913V16.4583C20.4167 16.8955 20.7711 17.2499 21.2083 17.2499C21.6456 17.2499 22 16.8955 22 16.4583V8.54159C22 8.24419 21.8333 7.97188 21.5685 7.83659C21.3036 7.70129 20.9853 7.72584 20.7444 7.90014L16.541 10.9405L16.4583 10.8578V8.54159C16.4583 7.9117 16.2081 7.30761 15.7627 6.86221C15.3173 6.41681 14.7132 6.16659 14.0833 6.16659H11.4392C11.0019 6.16659 10.6475 6.52103 10.6475 6.95826C10.6475 7.39548 11.0019 7.74992 11.4392 7.74992Z" fill="white"/>
</svg>

<svg xmlns="http://www.w3.org/2000/svg" width="24" height="24" fill="none" viewBox="0 0 24 24"><path fill="#fff" fill-rule="evenodd" d="M4.351 3.232a.792.792 0 0 0-1.12 1.12l1.836 1.835A2.375 2.375 0 0 0 3 8.542v7.916a2.375 2.375 0 0 0 2.375 2.375h8.708a2.375 2.375 0 0 0 2.186-1.445l4.38 4.38a.792.792 0 1 0 1.12-1.12l-5.536-5.535-.006-.006-8.709-8.709a1.014 1.014 0 0 0-.006-.006l-3.16-3.16Zm2.28 4.518 8.244 8.245v.463a.791.791 0 0 1-.792.792H5.375a.792.792 0 0 1-.792-.792V8.542a.792.792 0 0 1 .792-.792H6.63Zm4.808 0h2.644a.791.791 0 0 1 .792.792v2.644c0 .21.083.411.232.56l.792.791a.792.792 0 0 0 1.023.082l3.495-2.528v6.367a.792.792 0 1 0 1.583 0V8.542a.792.792 0 0 0-1.256-.642l-4.203 3.04-.083-.082V8.542a2.375 2.375 0 0 0-2.375-2.375H11.44a.792.792 0 1 0 0 1.583Z" clip-rule="evenodd"/></svg>
